src/assets/icons/apple.svg

<svg width="14" height="14" viewBox="0 0 14 14" fill="none" xmlns="http://www.w3.org/2000/svg">
<g id="apple">
<path id="Vector" d="M10.9538 7.39827C10.9477 6.25112 11.4666 5.38573 12.5166 4.74784C11.9286 3.90695 11.0413 3.44408 9.86877 3.35395C8.75925 3.26645 7.54646 4.00058 7.10283 4.00058C6.63382 4.00058 5.55843 3.38458 4.71491 3.38458C2.971 3.41258 1.11771 4.77586 1.11771 7.54791C1.11771 8.36693 1.26734 9.21307 1.56747 10.0863C1.96736 11.2335 3.41201 14.0467 4.91791 13.9994C5.70543 13.981 6.26195 13.4403 7.28747 13.4403C8.28149 13.4403 8.79687 13.9994 9.67538 13.9994C11.1944 13.9775 12.5008 11.4207 12.8823 10.271C10.8444 9.31108 10.9538 7.45777 10.9538 7.39827ZM9.18451 2.26629C10.0377 1.2539 9.95977 0.331632 9.93439 0C9.181 0.0437509 8.30948 0.512769 7.81247 1.09116C7.26559 1.70979 6.94358 2.47543 7.0127 3.3382C7.82822 3.40032 8.572 2.98206 9.18451 2.26629Z" fill="black"/>
</g>
</svg>

<svg xmlns="http://www.w3.org/2000/svg" fill="none" viewBox="0 0 14 14"><path fill="#000" d="M10.954 7.398c-.006-1.147.513-2.012 1.563-2.65-.588-.841-1.476-1.304-2.648-1.394-1.11-.088-2.323.647-2.766.647-.47 0-1.545-.616-2.388-.616-1.744.028-3.597 1.39-3.597 4.163q0 1.229.45 2.538c.4 1.147 1.844 3.96 3.35 3.913.787-.018 1.344-.559 2.37-.559.993 0 1.509.56 2.387.56 1.52-.023 2.826-2.58 3.207-3.729-2.038-.96-1.928-2.813-1.928-2.873m-1.77-5.132c.854-1.012.776-1.934.75-2.266-.753.044-1.625.513-2.122 1.091-.546.619-.868 1.384-.8 2.247.816.062 1.56-.356 2.173-1.072"/></svg>
